src/assets/logo-black.svg

<svg width="57" height="25" viewBox="0 0 57 25" fill="none" xmlns="http://www.w3.org/2000/svg">
<path d="M23.0889 24.3598C21.8935 24.3598 20.8447 24.1793 19.9424 23.8185C19.0628 23.435 18.3749 22.8148 17.8786 21.9577C17.3824 21.078 17.1343 19.8826 17.1343 18.3714V2.9488C17.1343 2.79642 17.2578 2.67289 17.4102 2.67289L21.4258 2.67289C21.5782 2.67289 21.7018 2.79642 21.7018 2.9488V7.03209C21.7018 7.18447 21.8253 7.308 21.9777 7.308H25.6549C25.8073 7.308 25.9308 7.43153 25.9308 7.58391V10.8552C25.9308 11.0076 25.8073 11.1311 25.6549 11.1311H21.9777C21.8253 11.1311 21.7018 11.2546 21.7018 11.407V18.439C21.7018 19.2059 21.8709 19.736 22.2092 20.0292C22.5476 20.3224 23.1227 20.469 23.9347 20.469H25.8918C26.0442 20.469 26.1677 20.5925 26.1677 20.7449V24.0839C26.1677 24.2363 26.0442 24.3598 25.8918 24.3598L23.0889 24.3598Z" fill="black"/>
<path d="M52.7232 18.7606C52.8221 18.6467 52.9895 18.598 53.1227 18.6687L55.9778 20.1831C56.1187 20.2578 56.1675 20.4331 56.0729 20.5615C55.2353 21.6979 51.9648 25.2519 46.6446 24.2837C43.316 23.678 40.3418 20.9358 39.6555 17.3377C39.4317 16.2997 39.4258 15.1982 39.6197 14.133C40.4859 9.37308 45.0105 6.2418 49.7704 7.10805C54.3972 7.95007 57.4922 12.2961 56.8227 16.9199C56.8054 17.0149 56.8009 17.1011 56.7895 17.1812C56.7743 17.2885 56.6743 17.3526 56.5659 17.3526L44.438 17.3535C44.2598 17.3535 44.1281 17.5202 44.1841 17.6894C44.6236 19.0183 45.7494 20.1317 47.3473 20.4225C49.9315 20.8928 52.0672 19.516 52.7232 18.7606ZM44.2739 13.5013L44.2199 13.6426C44.1509 13.8229 44.2836 14.0164 44.4766 14.0171L51.9905 14.043C52.1748 14.0437 52.3078 13.8667 52.2419 13.6945C51.6407 12.1236 50.1887 10.9442 48.5473 10.8058C46.7589 10.6178 44.9672 11.7705 44.2739 13.5013Z" fill="black"/>
<path d="M27.4649 24.3645C27.3125 24.3645 27.189 24.241 27.189 24.0886V20.8162C27.189 20.7482 27.2141 20.6826 27.2595 20.6319L35.3621 11.5962C35.5214 11.4185 35.3953 11.1361 35.1566 11.1361L27.4762 11.1361C27.3238 11.1361 27.2002 11.0126 27.2002 10.8602V7.58864C27.2002 7.43625 27.3238 7.31273 27.4762 7.31273L40.7507 7.31273C40.9031 7.31273 41.0266 7.43626 41.0266 7.58864V11.0287C41.0266 11.0978 41.0007 11.1643 40.954 11.2152L32.7897 20.1128C32.6274 20.2897 32.7529 20.5752 32.993 20.5752H40.7394C40.8918 20.5752 41.0153 20.6988 41.0153 20.8511V24.0886C41.0153 24.241 40.8918 24.3645 40.7394 24.3645H27.4649Z" fill="black"/>
<path d="M2.61038 24.3597C2.458 24.3597 2.33447 24.2362 2.33447 24.0838L2.33447 11.4069C2.33447 11.2546 2.21094 11.131 2.05856 11.131H0.275911C0.12353 11.131 -1.33216e-08 11.0075 0 10.8551L2.85986e-07 7.58382C2.99308e-07 7.43144 0.12353 7.30791 0.275912 7.30791L2.05856 7.30791C2.21094 7.30791 2.33447 7.18438 2.33447 7.032L2.33447 5.78543C2.33447 4.36445 2.5713 3.23668 3.04496 2.40214C3.51862 1.56759 4.19528 0.958599 5.07494 0.57516C5.97715 0.19172 7.02597 -1.04508e-07 8.2214 0L9.8063 1.38556e-07C9.95868 1.51877e-07 10.0822 0.12353 10.0822 0.275911V3.61487C10.0822 3.76726 9.95868 3.89079 9.8063 3.89079L8.89806 3.89078C8.19884 3.89078 7.69135 4.0374 7.37557 4.33061C7.0598 4.60128 6.90191 5.07494 6.90191 5.7516V7.032C6.90191 7.18438 7.02544 7.30791 7.17782 7.30791L15.0688 7.30791C15.2212 7.30791 15.3447 7.43144 15.3447 7.58382L15.3447 24.0838C15.3447 24.2362 15.2212 24.3597 15.0688 24.3597H11.0532C10.9008 24.3597 10.7773 24.2362 10.7773 24.0838L10.7773 11.4069C10.7773 11.2546 10.6538 11.131 10.5014 11.131L7.17782 11.131C7.02544 11.131 6.90191 11.2546 6.90191 11.4069L6.90191 24.0838C6.90191 24.2362 6.77838 24.3597 6.626 24.3597H2.61038Z" fill="black"/>
</svg>

<svg xmlns="http://www.w3.org/2000/svg" width="57" height="25" fill="none" viewBox="0 0 57 25"><path fill="#000" d="M23.089 24.36q-1.793 0-3.147-.541-1.32-.576-2.063-1.861-.745-1.32-.745-3.587V2.95c0-.153.124-.276.276-.276h4.016c.152 0 .276.123.276.276v4.083c0 .152.123.276.276.276h3.677c.152 0 .276.124.276.276v3.271a.276.276 0 0 1-.276.276h-3.677a.276.276 0 0 0-.276.276v7.032q0 1.15.507 1.59.508.44 1.726.44h1.957c.152 0 .276.123.276.276v3.339a.276.276 0 0 1-.276.276zm29.634-5.6c.1-.113.267-.162.4-.091l2.855 1.514c.14.075.19.25.095.378-.838 1.137-4.108 4.69-9.428 3.723-3.329-.606-6.303-3.348-6.99-6.946a8.3 8.3 0 0 1-.035-3.205 8.707 8.707 0 0 1 10.15-7.025c4.627.842 7.722 5.188 7.053 9.812-.018.095-.022.181-.034.261-.015.107-.115.172-.223.172H44.438c-.178 0-.31.167-.254.336a4.06 4.06 0 0 0 3.163 2.733c2.584.47 4.72-.906 5.376-1.661m-8.45-5.259-.053.142a.276.276 0 0 0 .257.374l7.514.026c.184 0 .317-.176.25-.348-.6-1.571-2.052-2.75-3.694-2.89-1.788-.187-3.58.966-4.273 2.696"/><path fill="#000" d="M27.465 24.365a.276.276 0 0 1-.276-.276v-3.273c0-.068.025-.133.07-.184l8.103-9.036a.276.276 0 0 0-.205-.46h-7.68a.276.276 0 0 1-.277-.276V7.59c0-.153.124-.276.276-.276h13.275c.152 0 .276.123.276.276v3.44a.27.27 0 0 1-.073.186l-8.164 8.898a.276.276 0 0 0 .203.462h7.746c.153 0 .276.124.276.276v3.238a.276.276 0 0 1-.276.276zM2.61 24.36a.276.276 0 0 1-.276-.276V11.407a.276.276 0 0 0-.275-.276H.276A.276.276 0 0 1 0 10.855V7.584c0-.153.124-.276.276-.276h1.783a.276.276 0 0 0 .275-.276V5.785q0-2.13.711-3.383A4.2 4.2 0 0 1 5.075.575Q6.428 0 8.22 0h1.585c.153 0 .276.124.276.276v3.339a.276.276 0 0 1-.276.276h-.908q-1.05 0-1.522.44-.474.406-.474 1.42v1.281c0 .152.123.276.276.276h7.89c.153 0 .277.123.277.276v16.5a.276.276 0 0 1-.276.276h-4.016a.276.276 0 0 1-.276-.276V11.407a.276.276 0 0 0-.276-.276H7.178a.276.276 0 0 0-.276.276v12.677a.276.276 0 0 1-.276.276z"/></svg>
